neru-light-classic/22x22/actions/object-rotate-left-symbolic.svg

<?xml version="1.0" encoding="UTF-8" standalone="no"?>
<svg
   xmlns:dc="http://purl.org/dc/elements/1.1/"
   xmlns:cc="http://creativecommons.org/ns#"
   xmlns:rdf="http://www.w3.org/1999/02/22-rdf-syntax-ns#"
   xmlns:svg="http://www.w3.org/2000/svg"
   xmlns="http://www.w3.org/2000/svg"
   xmlns:sodipodi="http://sodipodi.sourceforge.net/DTD/sodipodi-0.dtd"
   xmlns:inkscape="http://www.inkscape.org/namespaces/inkscape"
   width="22"
   height="22"
   viewBox="0 0 22 22"
   version="1.1"
   id="svg7"
   sodipodi:docname="object-rotate-left-symbolic.svg"
   inkscape:version="0.92.1 r">
  <metadata
     id="metadata11">
    <rdf:RDF>
      <cc:Work
         rdf:about="">
        <dc:format>image/svg+xml</dc:format>
        <dc:type
           rdf:resource="http://purl.org/dc/dcmitype/StillImage" />
        <dc:title></dc:title>
      </cc:Work>
    </rdf:RDF>
  </metadata>
  <sodipodi:namedview
     pagecolor="#ffffff"
     bordercolor="#666666"
     borderopacity="1"
     objecttolerance="10"
     gridtolerance="10"
     guidetolerance="10"
     inkscape:pageopacity="0"
     inkscape:pageshadow="2"
     inkscape:window-width="769"
     inkscape:window-height="480"
     id="namedview9"
     showgrid="false"
     inkscape:zoom="10.727273"
     inkscape:cx="11"
     inkscape:cy="11"
     inkscape:window-x="0"
     inkscape:window-y="0"
     inkscape:window-maximized="0"
     inkscape:current-layer="svg7" />
  <defs
     id="defs3">
    <style
       type="text/css"
       id="current-color-scheme">
   .ColorScheme-Text { color:#1e333d; } .ColorScheme-Highlight { color:#3fb7ff; }
  </style>
  </defs>
  <path
     style="fill:currentColor;opacity:1"
     class="ColorScheme-Text"
     transform="translate(3 3)"
     d="M 8.0292969 0.001953125 L 4.0292969 3.0019531 L 8.0292969 6.0019531 L 8.0292969 4.0019531 C 10.238397 4.0019531 12.029297 5.7928531 12.029297 8.0019531 C 12.029297 10.211053 10.238397 12.001953 8.0292969 12.001953 C 5.8201969 12.001953 4.0292969 10.211053 4.0292969 8.0019531 A 1 1 0 0 0 3.0292969 7.0019531 A 1 1 0 0 0 2.0292969 8.0019531 A 1 1 0 0 0 2.0351562 8.1015625 C 2.0889563 11.368762 4.7491969 14.001953 8.0292969 14.001953 C 11.342997 14.001953 14.029297 11.315653 14.029297 8.0019531 C 14.029297 4.6882531 11.342997 2.0019531 8.0292969 2.0019531 L 8.0292969 0.001953125 z"
     id="path5" />
</svg>

<svg xmlns="http://www.w3.org/2000/svg" width="22" height="22" version="1.1" id="svg7"><defs id="defs3"><style type="text/css" id="current-color-scheme"></style></defs><path transform="translate(3 3)" d="M8.03.002l-4 3 4 3v-2a4 4 0 1 1-4 4 1 1 0 0 0-1-1 1 1 0 0 0-1 1 1 1 0 0 0 .005.1 5.997 5.997 0 0 0 11.994-.1 6 6 0 0 0-6-6v-2z" id="path5" fill="currentColor" opacity="1" color="#1e333d"/></svg>
